src/Assets/Icons/NavBar/clipboard.svg

<svg width="16" height="20" viewBox="0 0 16 20" fill="none" xmlns="http://www.w3.org/2000/svg">
<path d="M13 2H12C12 1.46957 11.7893 0.960859 11.4142 0.585786C11.0391 0.210714 10.5304 0 10 0H6C5.46957 0 4.96086 0.210714 4.58579 0.585786C4.21071 0.960859 4 1.46957 4 2H3C2.20435 2 1.44129 2.31607 0.87868 2.87868C0.316071 3.44129 0 4.20435 0 5V17C0 17.7956 0.316071 18.5587 0.87868 19.1213C1.44129 19.6839 2.20435 20 3 20H13C13.7956 20 14.5587 19.6839 15.1213 19.1213C15.6839 18.5587 16 17.7956 16 17V5C16 4.20435 15.6839 3.44129 15.1213 2.87868C14.5587 2.31607 13.7956 2 13 2ZM6 2H10V3V4H6V2ZM14 17C14 17.2652 13.8946 17.5196 13.7071 17.7071C13.5196 17.8946 13.2652 18 13 18H3C2.73478 18 2.48043 17.8946 2.29289 17.7071C2.10536 17.5196 2 17.2652 2 17V5C2 4.73478 2.10536 4.48043 2.29289 4.29289C2.48043 4.10536 2.73478 4 3 4H4C4 4.53043 4.21071 5.03914 4.58579 5.41421C4.96086 5.78929 5.46957 6 6 6H10C10.5304 6 11.0391 5.78929 11.4142 5.41421C11.7893 5.03914 12 4.53043 12 4H13C13.2652 4 13.5196 4.10536 13.7071 4.29289C13.8946 4.48043 14 4.73478 14 5V17Z" fill="#F5F4F3"/>
</svg>

<svg xmlns="http://www.w3.org/2000/svg" width="16" height="20" fill="none"><path fill="#F5F4F3" d="M13 2h-1a2 2 0 0 0-2-2H6a2 2 0 0 0-2 2H3a3 3 0 0 0-3 3v12a3 3 0 0 0 3 3h10a3 3 0 0 0 3-3V5a3 3 0 0 0-3-3ZM6 2h4v2H6V2Zm8 15a1 1 0 0 1-1 1H3a1 1 0 0 1-1-1V5a1 1 0 0 1 1-1h1a2 2 0 0 0 2 2h4a2 2 0 0 0 2-2h1a1 1 0 0 1 1 1v12Z"/></svg>
